X: 050467
T: Eddie Kelly's
S: Kathleen Collins
Z: B.Black
R: reel
M: 4/4
L: 1/8
K: Dm
c |: AGEC DEDC | A,DDC A,DDC | DCDE F3 G |\
Adfe d3 c |
AGEC A,3 =B, | C3 D EGAc | dfed cGAc |\
AFEA FD D2 :|
fdd^c d3 e | fddd eceg | fdd^c defd |\
eg (3g^fg ec c2 |
fdd^c defd|ea (3a^ga ec (3c=Bc|d=B (3BBB cA (3AAA|\
_BAGE FD D2:|
